apps/filecoin-site/public/assets/logos/internet-archive-logo.svg

<svg
  xmlns="http://www.w3.org/2000/svg"
  viewBox="0 0 166 48"
  fill="currentColor"
>
  <path
    fill="currentColor"
    d="M58.8633 40.5314L57.536 36.8647H53.0562L51.7288 40.5314H50.6338L54.1347 30.958C54.201 30.7755 54.4333 30.0786 54.4333 29.9127C54.4333 29.1661 53.6203 29.1661 53.0728 29.0831V28.7015H56.3745L60.6718 40.548H58.8467V40.5314H58.8633ZM55.2463 30.9082L53.3548 36.0517H57.2373L55.2463 30.9082ZM73.9452 40.5314L70.826 35.0562H69.7309V40.5314H67.7897V31.0741C67.7897 29.3818 67.7897 29.3154 66.1139 29.0665V28.6849H70.6435C72.7672 28.6849 75.4053 29.1495 75.4053 31.8374C75.4053 33.6127 74.3932 34.4589 72.7174 34.7409L75.9528 40.5314H73.9452ZM70.9089 29.5145C69.648 29.5145 69.7309 29.9957 69.7309 31.0907V34.2266H70.743C72.2861 34.2266 73.4807 33.6625 73.4807 31.9369C73.4807 30.1948 72.5847 29.5145 70.9089 29.5145ZM87.1689 40.6974C83.1205 40.6974 81.9756 38.0759 81.9756 34.4257C81.9756 31.0244 83.1039 28.6186 86.8868 28.6186C88.0814 28.6186 89.276 28.7845 90.4043 29.1495L90.5038 32.0862H89.9895C89.9397 31.7046 89.8236 31.3396 89.6245 31.0078C89.0769 30.062 88.1644 29.4647 87.0527 29.4647C84.398 29.4647 84.0496 32.4015 84.0496 34.4257C84.0496 36.6158 84.7133 39.7019 87.4509 39.7019C88.6124 39.7019 89.5747 39.4696 90.537 38.8059V40.0171C89.4254 40.5315 88.3635 40.6974 87.1689 40.6974ZM105.022 40.5314V34.7741H100.227V40.5314H98.2854V31.0078C98.2854 29.4647 98.0033 29.4481 96.5266 29.2822V28.9006L100.227 28.5024V33.9611H105.022V28.7015H106.963V40.548L105.022 40.5314ZM113.749 40.5314V40.0835C115.076 40.0835 115.242 39.735 115.242 38.4409V30.875C115.242 29.5975 115.06 29.2325 113.749 29.2325V28.8011H118.693V29.249C117.382 29.249 117.2 29.6141 117.2 30.8916V38.4575C117.2 39.7185 117.382 40.1001 118.693 40.1001V40.548L113.749 40.5314ZM131.535 40.5314H129.992L126.541 30.958C126.01 29.4813 125.927 29.3818 124.417 29.0997V28.7181H127.819L131.27 38.3579H131.303L134.671 28.7181H135.816L131.535 40.5314ZM149.72 40.5314H142.702V31.0741C142.702 29.3818 142.685 29.332 141.026 29.0665V28.6849H149.454L149.504 31.2898H149.006C149.006 29.9625 148.359 29.5145 147.115 29.5145H145.721C144.908 29.5145 144.61 29.5311 144.61 30.4271V33.9279H146.733C147.729 33.9279 148.011 33.4634 148.177 32.5674H148.675V36.2674H148.177C148.177 35.2885 147.762 34.7575 146.733 34.7575H144.61V38.6732C144.61 39.6355 144.825 39.6853 145.721 39.6853H147.679C148.874 39.6853 149.172 39.088 149.255 37.9597H149.753L149.72 40.5314Z"
  />

  <!-- "INTERNET" text -->
  <path
    fill="currentColor"
    d="M50.7499 24.4706V24.0226C52.0607 24.0226 52.2432 23.6742 52.2432 22.3801V14.8142C52.2432 13.5366 52.0607 13.1716 50.7499 13.1716V12.7402H55.6943V13.1882C54.3669 13.1882 54.201 13.5532 54.201 14.8308V22.3966C54.201 23.6576 54.3835 24.0392 55.6943 24.0392V24.4872L50.7499 24.4706ZM70.0954 24.4725L64.2883 14.4677H64.2551V24.4725H63.1435V14.8991C63.1435 13.2399 62.878 13.3228 61.3848 13.0408V12.6592H65.1013L70.6596 22.2326H70.6928V12.6426H71.8044V24.4891L70.0954 24.4725ZM87.5012 15.228C87.5012 13.8342 86.9039 13.4526 85.5766 13.4526H84.382V24.4696H82.4407V13.4526H81.2295C79.8856 13.4526 79.4376 13.8342 79.3381 15.1782H78.8403L78.9067 12.623H87.916L87.9824 15.228H87.5012ZM102.086 24.4725H95.0674V15.0318C95.0674 13.3394 95.0508 13.2897 93.3916 13.0242V12.6426H101.82L101.87 15.2475H101.372C101.372 13.9201 100.725 13.4722 99.4808 13.4722H98.0871C97.2741 13.4722 96.9754 13.4888 96.9754 14.3847V17.869H99.0992C100.111 17.869 100.377 17.4044 100.543 16.5085H101.04V20.2084H100.543C100.543 19.2295 100.128 18.6986 99.0992 18.6986H96.9754V22.6142C96.9754 23.5766 97.1911 23.6263 98.0871 23.6263H100.045C101.24 23.6263 101.538 23.029 101.621 21.9008H102.119L102.086 24.4725ZM116.254 24.4725L113.134 18.9972H112.039V24.4725H110.098V15.0318C110.098 13.3394 110.098 13.2731 108.422 13.0242V12.6426H112.952C115.076 12.6426 117.714 13.1071 117.714 15.795C117.714 17.5703 116.702 18.4165 115.026 18.6986L118.261 24.4891H116.254V24.4725ZM113.217 13.4556C111.956 13.4556 112.039 13.9367 112.039 15.0318V18.1676H113.035C114.578 18.1676 115.773 17.6035 115.773 15.878C115.789 14.1358 114.893 13.4556 113.217 13.4556ZM132.78 24.4725L126.973 14.4677H126.94V24.4725H125.828V14.8991C125.828 13.2399 125.563 13.3228 124.069 13.0408V12.6592H127.786L133.344 22.2326H133.377V12.6426H134.489V24.4891L132.78 24.4725ZM150.085 24.4725H143.067V15.0318C143.067 13.3394 143.05 13.2897 141.391 13.0242V12.6426H149.82L149.87 15.2475H149.372C149.372 13.9201 148.725 13.4722 147.48 13.4722H146.087C145.274 13.4722 144.975 13.4888 144.975 14.3847V17.869H147.099C148.111 17.869 148.376 17.4044 148.542 16.5085H149.04V20.2084H148.542C148.542 19.2295 148.127 18.6986 147.099 18.6986H144.975V22.6142C144.975 23.5766 145.191 23.6263 146.087 23.6263H148.044C149.239 23.6263 149.538 23.029 149.621 21.9008H150.118L150.085 24.4725ZM165.217 15.228C165.217 13.8342 164.619 13.4526 163.292 13.4526H162.097V24.4696H160.156V13.4526H158.945C157.601 13.4526 157.153 13.8342 157.053 15.1782H156.556L156.622 12.623H165.631L165.698 15.228H165.217Z"
  />

  <!-- Building/temple structure -->
  <path
    fill="currentColor"
    d="M0.394 45.843h42.425V48H0.394v-2.157Zm1.675-4.181h39.174v3.02H2.069v-3.02ZM1.82 7.35h38.958v4.165H1.82V7.35ZM21.3 6.09h19.23l1.177-1.295L21.316 0 .924 4.795l1.179 1.294h19.196Z"
  />

  <!-- Columns -->
  <path
    fill="currentColor"
    d="M7.444 24.787l-.166-6.172-.315-5.807c0-.166-.083-.2-.216-.232a8.578 8.578 0 0 0-1.725-.183c-.581 0-1.145.066-1.726.183-.15.033-.216.066-.216.232l-.315 5.807-.15 6.172.017 4.364.133 4.844.266 5.194.083.979c.63.166 1.26.265 1.908.265a8.266 8.266 0 0 0 1.908-.265l.083-.98.265-5.193.133-4.844.033-4.364Z"
  />

  <path
    fill="currentColor"
    d="M18.046 24.787l-.166-6.172-.315-5.807c0-.166-.083-.2-.216-.232a8.577 8.577 0 0 0-1.725-.183c-.58 0-1.145.066-1.726.183-.15.033-.215.066-.215.232l-.316 5.807-.149 6.172v4.364l.133 4.844.265 5.194.083.979c.63.166 1.261.265 1.908.265a8.267 8.267 0 0 0 1.908-.265l.083-.98.266-5.193.132-4.844.05-4.364Z"
  />

  <path
    fill="currentColor"
    d="M30.358 24.786l-.165-6.172-.316-5.807c0-.166-.083-.2-.215-.232a8.585 8.585 0 0 0-1.726-.183c-.58 0-1.145.067-1.726.183-.149.033-.215.066-.215.232l-.315 5.807-.166 6.172.016 4.364.133 4.845.265 5.193.083.979c.63.166 1.261.265 1.909.265a8.266 8.266 0 0 0 1.907-.265l.083-.98.266-5.192.133-4.845.016-4.364h.034Z"
  />

  <path
    fill="currentColor"
    d="M40.712 24.786l-.165-6.172-.316-5.807c0-.166-.083-.2-.215-.232a8.585 8.585 0 0 0-1.726-.183c-.58 0-1.145.067-1.725.183-.15.033-.216.066-.216.232l-.315 5.807-.166 6.172.016 4.364.133 4.845.265 5.193.083.979c.63.166 1.261.265 1.908.265a8.266 8.266 0 0 0 1.908-.265l.084-.98.265-5.192.133-4.845.016-4.364h.033Z"
  />
</svg>

<svg
  xmlns="http://www.w3.org/2000/svg"
  viewBox="0 0 166 48"
  fill="currentColor"
>
  <path
    fill="currentColor"
    d="m58.863 40.531-1.327-3.666h-4.48L51.73 40.53h-1.095l3.5-9.573c.067-.182.3-.88.3-1.045 0-.747-.814-.747-1.361-.83v-.381h3.301l4.298 11.846h-1.825v-.017h.016Zm-3.617-9.623-1.891 5.144h3.882l-1.99-5.144Zm18.7 9.623-3.12-5.475h-1.095v5.475H67.79v-9.457c0-1.692 0-1.759-1.676-2.008v-.381h4.53c2.123 0 4.761.465 4.761 3.152 0 1.776-1.012 2.622-2.688 2.904l3.236 5.79h-2.008Zm-3.037-11.016c-1.261 0-1.178.48-1.178 1.576v3.136h1.012c1.543 0 2.738-.564 2.738-2.29 0-1.742-.896-2.422-2.572-2.422Zm16.26 11.182c-4.048 0-5.193-2.621-5.193-6.271 0-3.402 1.128-5.807 4.91-5.807 1.195 0 2.39.166 3.518.53l.1 2.937h-.514a2.775 2.775 0 0 0-.365-1.078c-.548-.946-1.46-1.543-2.572-1.543-2.655 0-3.003 2.936-3.003 4.96 0 2.19.663 5.277 3.4 5.277 1.162 0 2.125-.232 3.087-.896v1.211c-1.112.514-2.174.68-3.368.68Zm17.853-.166v-5.757h-4.795v5.757h-1.942v-9.523c0-1.543-.282-1.56-1.758-1.726v-.381l3.7-.399v5.46h4.795v-5.26h1.941v11.846l-1.941-.017Zm8.727 0v-.447c1.327 0 1.493-.349 1.493-1.643v-7.566c0-1.277-.182-1.642-1.493-1.642V28.8h4.944v.448c-1.311 0-1.493.365-1.493 1.643v7.566c0 1.26.182 1.642 1.493 1.642v.448l-4.944-.017Zm17.786 0h-1.543l-3.451-9.573c-.531-1.477-.614-1.576-2.124-1.858v-.382h3.402l3.451 9.64h.033l3.368-9.64h1.145l-4.281 11.813Zm18.185 0h-7.018v-9.457c0-1.692-.017-1.742-1.676-2.008v-.381h8.428l.05 2.605h-.498c0-1.328-.647-1.775-1.891-1.775h-1.394c-.813 0-1.111.016-1.111.912v3.5h2.123c.996 0 1.278-.464 1.444-1.36h.498v3.7h-.498c0-.979-.415-1.51-1.444-1.51h-2.123v3.916c0 .962.215 1.012 1.111 1.012h1.958c1.195 0 1.493-.597 1.576-1.725h.498l-.033 2.571Z"
  />

  <!-- "INTERNET" text -->
  <path
    fill="currentColor"
    d="m98.97-16.06v-.448c1.31 0 1.493-.349 1.493-1.643v-7.566c0-1.277-.182-1.642-1.493-1.642v-.432h4.944v.448c-1.327 0-1.493.365-1.493 1.643v7.566c0 1.26.182 1.642 1.493 1.642v.448l-4.944-.016ZM70.095 24.473l-5.807-10.005h-.033v10.005h-1.111V14.9c0-1.66-.266-1.577-1.76-1.859v-.381h3.717l5.559 9.573h.033v-9.59h1.111V24.49l-1.709-.017ZM87.501 15.23c0-1.394-.597-1.776-1.924-1.776h-1.195v11.017h-1.941V13.454h-1.212c-1.343 0-1.791.382-1.89 1.726h-.499l.067-2.556h9.009l.066 2.605h-.48ZM102.086 24.473h-7.019v-9.44c0-1.693-.016-1.743-1.675-2.008v-.382h8.428l.05 2.605h-.498c0-1.327-.647-1.775-1.891-1.775h-1.394c-.813 0-1.112.016-1.112.912v3.484H99.1c1.012 0 1.278-.464 1.444-1.36h.497v3.7h-.497c0-.979-.415-1.51-1.444-1.51h-2.124v3.916c0 .962.216 1.012 1.112 1.012h1.958c1.195 0 1.493-.598 1.576-1.726h.498l-.033 2.572ZM116.254 24.473l-3.12-5.475h-1.095v5.475h-1.941v-9.44c0-1.693 0-1.76-1.676-2.008v-.382h4.53c2.124 0 4.762.465 4.762 3.152 0 1.776-1.012 2.622-2.688 2.904l3.235 5.79h-2.007v-.016Zm-3.037-11.017c-1.261 0-1.178.481-1.178 1.576v3.136h.996c1.543 0 2.738-.564 2.738-2.29.016-1.742-.88-2.422-2.556-2.422ZM132.78 24.473l-5.807-10.005h-.033v10.005h-1.112V14.9c0-1.66-.265-1.577-1.759-1.859v-.381h3.717l5.558 9.573h.033v-9.59h1.112V24.49l-1.709-.017ZM150.085 24.473h-7.018v-9.44c0-1.693-.017-1.743-1.676-2.008v-.382h8.429l.05 2.605h-.498c0-1.327-.647-1.775-1.892-1.775h-1.393c-.813 0-1.112.016-1.112.912v3.484h2.124c1.012 0 1.277-.464 1.443-1.36h.498v3.7h-.498c0-.979-.415-1.51-1.443-1.51h-2.124v3.916c0 .962.216 1.012 1.112 1.012h1.957c1.195 0 1.494-.598 1.577-1.726h.497l-.033 2.572ZM165.217 15.23c0-1.394-.598-1.776-1.925-1.776h-1.195v11.017h-1.941V13.454h-1.211c-1.344 0-1.792.382-1.892 1.726h-.497l.066-2.556h9.009l.067 2.605h-.481Z"
  />

  <!-- Building/temple structure -->
  <path
    fill="currentColor"
    d="M.394 45.843h42.425V48H.394v-2.157Zm1.675-4.181h39.174v3.02H2.069v-3.02ZM1.82 7.35h38.958v4.165H1.82V7.35ZM21.3 6.09h19.23l1.177-1.295L21.316 0 .924 4.795l1.179 1.294h19.196Z"
  />

  <!-- Columns -->
  <path
    fill="currentColor"
    d="M7.444 24.787l-.166-6.172-.315-5.807c0-.166-.083-.2-.216-.232a8.578 8.578 0 0 0-1.725-.183c-.581 0-1.145.066-1.726.183-.15.033-.216.066-.216.232l-.315 5.807-.15 6.172.017 4.364.133 4.844.266 5.194.083.979c.63.166 1.26.265 1.908.265a8.266 8.266 0 0 0 1.908-.265l.083-.98.265-5.193.133-4.844.033-4.364Z"
  />

  <path
    fill="currentColor"
    d="M18.046 24.787l-.166-6.172-.315-5.807c0-.166-.083-.2-.216-.232a8.577 8.577 0 0 0-1.725-.183c-.58 0-1.145.066-1.726.183-.15.033-.215.066-.215.232l-.316 5.807-.149 6.172v4.364l.133 4.844.265 5.194.083.979c.63.166 1.261.265 1.908.265a8.267 8.267 0 0 0 1.908-.265l.083-.98.266-5.193.132-4.844.05-4.364Z"
  />

  <path
    fill="currentColor"
    d="M30.358 24.786l-.165-6.172-.316-5.807c0-.166-.083-.2-.215-.232a8.585 8.585 0 0 0-1.726-.183c-.58 0-1.145.067-1.726.183-.149.033-.215.066-.215.232l-.315 5.807-.166 6.172.016 4.364.133 4.845.265 5.193.083.979c.63.166 1.261.265 1.909.265a8.266 8.266 0 0 0 1.907-.265l.083-.98.266-5.192.133-4.845.016-4.364h.034Z"
  />

  <path
    fill="currentColor"
    d="M40.712 24.786l-.165-6.172-.316-5.807c0-.166-.083-.2-.215-.232a8.585 8.585 0 0 0-1.726-.183c-.58 0-1.145.067-1.725.183-.15.033-.216.066-.216.232l-.315 5.807-.166 6.172.016 4.364.133 4.845.265 5.193.083.979c.63.166 1.261.265 1.908.265a8.266 8.266 0 0 0 1.908-.265l.084-.98.265-5.192.133-4.845.016-4.364h.033Z"
  />
</svg>
